assets/sonr-icons/hns.svg

<svg xmlns="http://www.w3.org/2000/svg" width="24" height="24" fill="none" viewBox="0 0 24 24"><path fill="#000" d="M19.436 8.44301L18.108 6.18301L20.682 6.18401C20.75 6.18401 20.831 6.22801 20.868 6.28701C20.909 6.35102 21.118 6.68201 21.37 7.07701C21.671 7.55101 22.03 8.11902 22.236 8.44202L19.436 8.44301ZM14.675 22.128C14.613 22.235 14.532 22.235 14.505 22.235H13.453C12.896 22.235 12.255 22.234 11.872 22.234L15.962 15.204C16.068 15.022 16 14.792 15.81 14.692C15.752 14.66 15.686 14.644 15.619 14.644L8.64901 14.653L7.26201 12.355H17.415C17.416 12.355 17.417 12.355 17.418 12.355C17.419 12.355 17.42 12.355 17.421 12.355C17.427 12.355 17.432 12.353 17.437 12.353C17.46 12.352 17.482 12.349 17.505 12.344C17.521 12.34 17.539 12.335 17.554 12.329C17.562 12.326 17.571 12.322 17.579 12.319C17.658 12.287 17.723 12.23 17.765 12.157L19.438 9.19402H22.202L14.673 22.128H14.675ZM11.192 21.86C11.103 21.72 10.987 21.537 10.861 21.339C10.438 20.671 9.89701 19.815 9.83601 19.721C9.81601 19.689 9.80602 19.612 9.85001 19.538C9.94801 19.369 11.798 16.177 12.25 15.399L14.953 15.396L11.192 21.859V21.86ZM6.58401 17.462L5.24001 15.177L6.59401 12.747L7.95201 14.998C7.53101 15.759 6.87201 16.945 6.58401 17.462ZM4.78001 17.817C4.09601 17.817 3.41601 17.817 3.31701 17.817C3.25001 17.817 3.16901 17.772 3.13201 17.714L2.69501 17.024C2.38301 16.532 1.98501 15.904 1.76501 15.557H4.56301L5.89101 17.817C5.60101 17.817 5.19102 17.817 4.78001 17.817ZM9.32402 1.87301C9.38601 1.76501 9.46701 1.76501 9.49301 1.76501H12.137L8.03602 8.79501C8.03302 8.80101 8.03101 8.80701 8.02801 8.81401C8.02201 8.82601 8.01701 8.83702 8.01201 8.85002C8.00801 8.86202 8.00401 8.87301 8.00102 8.88601C7.99802 8.89901 7.99501 8.90901 7.99301 8.92001C7.99101 8.93401 7.98901 8.94801 7.98901 8.96201C7.98901 8.96801 7.98701 8.97401 7.98701 8.98101C7.98701 8.98601 7.98801 8.99001 7.98901 8.99501C7.98901 9.00901 7.99101 9.02302 7.99301 9.03602C7.99401 9.04802 7.99602 9.05801 7.99901 9.07001C8.00201 9.08201 8.00601 9.09301 8.01002 9.10501C8.01502 9.11701 8.01801 9.12701 8.02401 9.13901C8.03001 9.15101 8.03502 9.16101 8.04102 9.17101C8.04702 9.18101 8.05301 9.19101 8.06101 9.20101C8.06901 9.21102 8.07702 9.22101 8.08602 9.23001C8.09402 9.23901 8.10202 9.24801 8.11101 9.25601C8.12001 9.26401 8.12901 9.27101 8.14002 9.27801C8.15102 9.28501 8.16201 9.29401 8.17401 9.30001C8.17801 9.30301 8.18201 9.30602 8.18601 9.30901C8.19001 9.31201 8.19501 9.31201 8.20001 9.31501C8.22001 9.32501 8.24201 9.33401 8.26401 9.34001C8.27201 9.34201 8.27901 9.34502 8.28701 9.34701C8.31501 9.35401 8.34502 9.35702 8.37602 9.35702H8.55101C8.55201 9.35702 8.55302 9.35702 8.55302 9.35702L15.348 9.34801C15.528 9.64701 15.864 10.211 16.15 10.69C16.369 11.058 16.551 11.362 16.694 11.601H6.58201C6.57801 11.601 6.57401 11.602 6.56801 11.603C6.42501 11.604 6.29601 11.68 6.22801 11.8L4.55301 14.804H1.79401C2.99901 12.732 9.24101 2.00801 9.32201 1.87101H9.32402V1.87301ZM12.812 2.14901L13.058 2.53601C13.489 3.21701 14.098 4.17801 14.162 4.27801C14.182 4.30901 14.192 4.38701 14.148 4.46101L11.749 8.59801L9.04701 8.60101L12.812 2.14901ZM17.415 6.53601L18.759 8.82201L17.389 11.247C17.226 10.975 17.023 10.633 16.833 10.314C16.456 9.68301 16.182 9.22301 16.027 8.96601C16.321 8.45401 17.093 7.09901 17.416 6.53501L17.415 6.53601Z"/></svg>

<svg xmlns="http://www.w3.org/2000/svg" width="24" height="24" fill="none"><path fill="currentColor" d="m19.436 8.443-1.328-2.26 2.574.001c.068 0 .149.044.186.103l.502.79.866 1.365zm-4.761 13.685c-.062.107-.143.107-.17.107h-1.052l-1.581-.001 4.09-7.03a.367.367 0 0 0-.152-.512.4.4 0 0 0-.191-.048l-6.97.009-1.387-2.298h10.159l.016-.002a.4.4 0 0 0 .117-.024l.025-.01a.38.38 0 0 0 .186-.162l1.673-2.963h2.764l-7.529 12.934zm-3.483-.268-.331-.521c-.423-.668-.964-1.524-1.025-1.618-.02-.032-.03-.109.014-.183l2.4-4.139 2.703-.003zm-4.608-4.398L5.24 15.177l1.354-2.43 1.358 2.251c-.421.761-1.08 1.947-1.368 2.464m-1.804.355H3.317a.24.24 0 0 1-.185-.103l-.437-.69-.93-1.467h2.798l1.328 2.26zM9.324 1.873c.062-.108.143-.108.169-.108h2.644l-4.101 7.03-.008.019-.016.036-.011.036-.008.034q-.003.021-.004.042l-.002.019.002.014q0 .021.004.041l.006.034.011.035.014.034.017.032q.009.015.02.03l.025.029.025.026.029.022q.016.012.034.022l.012.009q.006.003.014.006.03.015.064.025l.023.007q.042.01.089.01h.177l6.795-.009c.18.299.516.863.802 1.342l.544.911H6.582l-.014.002a.39.39 0 0 0-.34.197l-1.675 3.004H1.794C2.999 12.732 9.241 2.008 9.322 1.871h.002zm3.488.276.246.387 1.104 1.742c.02.031.03.109-.014.183l-2.399 4.137-2.702.003zm4.603 4.387 1.344 2.286-1.37 2.425-.556-.933c-.377-.631-.651-1.091-.806-1.348.294-.512 1.066-1.867 1.389-2.431z"/></svg>
